Improvs/dist/images/main_page/minimize-icon.svg

<svg width="24" height="24" viewBox="0 0 24 24" fill="none" xmlns="http://www.w3.org/2000/svg">
<path d="M20.7552 20.8629L15.6982 19.5079L19.4002 15.8059L20.7552 20.8629Z" fill="white"/>
<path d="M3.13734 3.13707L8.19435 4.49209L4.49236 8.19408L3.13734 3.13707Z" fill="white"/>
<path fill-rule="evenodd" clip-rule="evenodd" d="M12.6576 13.4125L18.6615 19.4164L19.3686 18.7093L13.3647 12.7054L12.6576 13.4125ZM10.2441 10.9991L10.9512 10.292L5.9825 5.32324L5.27539 6.03035L10.2441 10.9991Z" fill="white"/>
</svg>

<svg width="24" height="24" fill="none" xmlns="http://www.w3.org/2000/svg"><path d="M20.755 20.863l-5.057-1.355 3.702-3.702 1.355 5.057zM3.137 3.137l5.057 1.355-3.702 3.702-1.355-5.057z" fill="#fff"/><path fill-rule="evenodd" clip-rule="evenodd" d="M12.658 13.412l6.004 6.004.707-.707-6.004-6.004-.707.707zM10.244 11l.707-.707-4.969-4.969-.707.707 4.97 4.97z" fill="#fff"/></svg>
